X:428
T:Sweetheart You Done Me Wrong
C:Bill Monroe
N:Transcribed by John Baldry "Bluegrass and Old-time Mandolin" Vol. 1 Issue 1 
R:bluegrass
L:1/8
Q:1/4=166
M:4/4
K:C
z4 cc eg | "C"c'2 g2 e2 c2 | _B2 G2 E2 C2 | "F"CF CF zC CC | F2 FF (3AAA (3ccc | 
"G"BB BB BB BB | AA AA GG FF | "C"EE GG GG GG | G2 GG cc eg | c'2 g2 e2 c2 | _BB zB G2 E2 | 
"F"FF zF zC (3CCC | F2 FF AA cc | "G"BB BB BB BB | B2 GG AA BB | "C"c2 c'c' ag ^d=d | 
cc cc cc cc | c8 | 


